X:32
T: MUTSCHEKUEHCHEN VON HALBERSTADT
N: K0121B
O: Europa, Mitteleuropa, Deutschland, Thueringen
R: Kinder -, Wiegen - Lied
M: 2/4
L: 1/16
K: F
 | c3BA2G2 | F2F2C2z2 |
c3BA2G2 | F2F2C2
C2 | F2G2A2c2 | c2B2G2z2 |
F2G2A2c2 | c2B2G2z2 |
c3BA2F2 | B2d2c4 |
B2G2A2F2 | G2E2F2z2

@@@ Tune index: 7369
